X: 2136
T: Üç Türkoğlu
C: Ferhat Erdem
O: Turkey
F: http://compmusic.upf.edu/node/140
N: segah--sazeseri--sofyan--uc_turkoglu--aksehir
N: makam= segah
N: form= sazeseri
N: usul= sofyan = 4/4
M: 4/4
L: 1/16
K: C _1/4B _1/4e ^f 
Q: 1/4=108
%%MIDI tuningsystem comma53
e2=fe d2e2 cdcd B4  | G2Bc d2d2 cBcd B4  | \
w:   |   | 
eg=fe d2e2 cdcd B4  | 
w:   | 
G2Bc d2d2 cBcd B4  | e2=fe d2e2 cdcd B4  | \
w:   |   | 
G2Bc d2d2 cBcd B4  | 
w:   | 
eg=fe d2e2 cdcd B4  | G2Bc d2d2 cBcd B4  | 
w:   |   | 
B4 f2g2 g4 g2a2  | f4 f2g2 e4 e2d2  | \
w:   |   | 
cde2 e2e2 =fede d4  | 
w:   | 
z2g2 =f2e2 fede d2^3/4c2  | d2G2 d2e2 =fede d2^3/4c2  | \
w:   |   | 
d4 f2g2 g4 g2a2  | 
w:   | 
f4 f2g2 e4 e2d2  | cde2 e2ee e=fg2 fed2  | \
w:   |   | 
d4 cBc2 B4 B2B2  | 
w:   | 
f3f fff2 g2e2 f2d2  | z2fg a2f2 g2e2 =f2d2  | \
w:   |   | 
z2fg a2f2 g2e2 =f2d2  | 
w:   | 
e2=fe d2e2 cdcd B4  | G2Bc d2d2 cBcd B4  | \
w:   |   | 
eg=fe d2e2 cdcd B4  | 
w:   | 
G2Bc d2d2 cBcd B4  | e2=fe d2e2 cdcd B4  | \
w:   |   | 
G2Bc d2d2 cBcd B4  | 
w:   | 
eg=fe d2e2 cdcd B4  | GABc d2d2 cBcd B4  | 
w:   |   | 
B4 f2g2 g4 g2a2  | f4 f2g2 e4 e2d2  | \
w:   |   | 
cde2 e2e2 =fede d4  | 
w:   | 
z2g2 =f2e2 fede d2^3/4c2  | d2G2 d2e2 =fede d2^3/4c2  | \
w:   |   | 
d4 f2g2 g4 g2a2  | 
w:   | 
f4 f2g2 e4 e2d2  | cde2 e2ee e=fg2 fed2  | \
w:   |   | 
d4 cBc2 B4 B2B2  | 
w:   | 
f3f fff2 g2e2 f2d2  | z2fg a2f2 g2e2 =f2d2  | \
w:   |   | 
z2fg a2f2 g2e2 =f2d2  | 
w:   | 
e2=fe d2e2 cdcd B4  | G2Bc d2d2 cBcd B4  | \
w:   |   | 
eg=fe d2e2 cdcd B4  | 
w:   | 
G2Bc d2d2 cBcd B4  | e2=fe d2e2 cdcd B4  | \
w:   |   | 
G2Bc d2d2 cBcd B4  | 
w:   | 
eg=fe d2e2 cdcd B4  | GABc d2d2 cBcd B4  | 
w:   |   | 
|


